packages/foundations/assets/icons/functional/images/devices/mobile_phone_20.svg

<svg width="20" height="20" viewBox="0 0 20 20" fill="none" xmlns="http://www.w3.org/2000/svg">
<g clip-path="url(#clip0_185_726)">
<path fill-rule="evenodd" clip-rule="evenodd" d="M13.3789 2C14.2774 2 15 2.7415 15 3.639V16.361C15 17.2585 14.2774 18 13.3789 18H6.62109C5.72261 18 5 17.2585 5 16.361V3.639C5 2.7415 5.72261 2 6.62109 2H13.3789ZM8.0052 4H6.99215V16H12.9922V4H11.9791V5.0147H8.0052V4ZM8.9951 15.0049V13.0049H10.9951V15.0049H8.9951Z" fill="#1A1C1F"/>
</g>
<defs>
<clipPath id="clip0_185_726">
<rect width="20" height="20" fill="white"/>
</clipPath>
</defs>
</svg>

<svg xmlns="http://www.w3.org/2000/svg" width="20" height="20" fill="none"><g clip-path="url(#a)"><path fill="#1A1C1F" fill-rule="evenodd" d="M13.379 2C14.277 2 15 2.741 15 3.639v12.722c0 .898-.723 1.639-1.621 1.639H6.62A1.633 1.633 0 0 1 5 16.361V3.639C5 2.742 5.723 2 6.621 2zM8.005 4H6.992v12h6V4H11.98v1.015H8.005zm.99 11.005v-2h2v2z" clip-rule="evenodd"/></g><defs><clipPath id="a"><path fill="#fff" d="M0 0h20v20H0z"/></clipPath></defs></svg>
